X: 26
T: No_22_Sun_Dance_Song_(e).krn
N: Derived from No_22_Sun_Dance_Song_(e).krn
%%abc-version 2.0
%%abcx-abcm2ps-target-version 5.9.1 (29 Sep 2008)
%%abc-creator hum2abc beta
%%abcx-conversion-date 2019/03/15 08:36:49
%%humdrum-veritas 2938334768
%%humdrum-veritas-data 3198635691
%%linebreak <none>
%%barnumbers 0
L: 1/8
M: 3/8
%%staves {1 2}
V: 1 clef=bass
V: 2 clef=bass
K: Bb
[V:1] [K:clef=bass][M:3/8]F3 | 
[V:2] [K:clef=bass][M:3/8]G,,G,,G,, | 
[V:1] F/E/-E/D/B, | 
[V:2] G,,G,,G,, | 
[V:1] F3 | 
[V:2] z3 | 
[V:1] F2E | 
[V:2] z3 | 
[V:1] F3 | 
[V:2] z3 | 
[V:1] F/E/-E/D/B,//F,3// | 
[V:2] z3 | 
[V:1] B,3 | 
[V:2] z3 | 
[V:1] B,G,/F,/F, | 
[V:2] z3 | 
[V:1] B,B,B, | 
[V:2] z3 | 
[V:1] C//B,3//B,B, ||  
[V:2] z3 ||  
[V:1] [M:2/8]B, z ||  
[V:2] [M:2/8]z2 ||  
[V:1] [M:3/8]DD2 | 
[V:2] [M:3/8]z3 | 
[V:1] D/B,/B,G, ||  
[V:2] z3 ||  
[V:1] [M:2/8]F,2 | 
[V:2] [M:2/8]z2 | 
[V:1] F,2- | 
[V:2] z2 | 
[V:1] F,E, | 
[V:2] z2 | 
[V:1] F,G,/F,/ | 
[V:2] z2 | 
[V:1] F,F, | 
[V:2] z2 | 
[V:1] G,//F,3//F, ||  
[V:2] z2 ||  
[V:1] [M:3/8]F,3 | 
[V:2] [M:3/8]z3 | 
[V:1] F,G,/F,/F, | 
[V:2] z3 | 
[V:1] F,3 | 
[V:2] z3 | 
[V:1] B,B,2 | 
[V:2] z3 | 
[V:1] B,G,/F,/F, | 
[V:2] z3 | 
[V:1] B,B,B, | 
[V:2] z3 | 
[V:1] C//B,3//B,B, ||  
[V:2] z3 ||  
[V:1] [M:2/8]B, z ||  
[V:2] [M:2/8]z2 ||  
[V:1] [M:3/8]DD2 | 
[V:2] [M:3/8]z3 | 
[V:1] D/B,/B,G, ||  
[V:2] z3 ||  
[V:1] [M:2/8]F,2 | 
[V:2] [M:2/8]z2 | 
[V:1] F,2- | 
[V:2] z2 | 
[V:1] F,E, | 
[V:2] z2 | 
[V:1] F,G,/F,/ | 
[V:2] z2 | 
[V:1] F,F, | 
[V:2] z2 | 
[V:1] G,//F,3//F, | 
[V:2] z2 | 
[V:1] F,2 |]  
[V:2] z2 |]  



